web/themes/custom/roach/logo.svg

<svg width="512" height="512" viewBox="0 0 512 512" fill="none" xmlns="http://www.w3.org/2000/svg">
<g clip-path="url(#clip0)">
<path d="M348.573 102.558C324.507 87.5739 301.803 81.6709 279.099 66.6864C265.023 57.1507 245.498 34.4469 229.151 14.9216C225.972 46.2529 216.437 58.967 205.539 68.0486C182.381 86.2117 167.85 91.6606 147.871 102.558C131.07 111.186 39.8005 165.675 39.8005 282.827C39.8005 399.979 138.335 486.254 247.768 486.254C357.201 486.254 452.103 406.79 452.103 286.46C452.103 166.129 363.104 111.64 348.573 102.558Z" fill="#FFD029" stroke="#3F2F17" stroke-width="17"/>
<path d="M283.705 76.883C260.251 62.6272 248.379 46.0188 237.102 33.6642C235.193 31.573 233.256 29.1942 233.256 29.1942C233.876 33.3084 266.704 81.8131 321.979 112.453C375 141.843 434.797 217 405.5 324.5C389.421 383.5 352.5 443.5 252.305 480.126C282.685 479.997 308.285 471.543 319.663 467.797C334.116 463.59 370.815 445.244 393.765 420.331C406.554 406.616 443.798 371.442 446.085 284.974C448.253 202.972 392.582 130.743 336.17 102.313C315.414 91.8521 301.011 85.5359 283.705 76.883Z" fill="#FDB53E"/>
<path d="M211.711 378.56C202.647 380.575 176.462 391.149 187.54 378.057C201.261 360.995 205.164 327.199 178.98 300.007C168.406 291.003 152.292 293.461 152.796 307.561C159.923 334.81 158.335 356.009 144.235 364.965C85.6185 402.199 97.4058 505.454 182.001 512C210.2 512 222.285 508.267 247.966 499.411C262.569 494.376 264.583 479.773 253.505 472.22C270.626 463.156 272.64 448.05 256.526 438.986C272.57 425.404 274.294 416.775 256.526 403.234L323.498 387.121C346.157 381.078 336.59 350.362 318.462 354.894L211.711 378.56Z" fill="#3F2F17"/>
<path d="M145.309 139.325C140.242 141.521 137.914 147.409 140.11 152.476C142.306 157.544 148.194 159.872 153.262 157.676L145.309 139.325ZM234.909 156.48C240.113 158.329 245.831 155.609 247.68 150.405C249.529 145.201 246.809 139.483 241.604 137.634L234.909 156.48ZM153.262 157.676C166.918 151.758 178.75 148.588 191.185 148.216C203.658 147.843 217.417 150.266 234.909 156.48L241.604 137.634C222.546 130.864 206.247 127.756 190.587 128.225C174.887 128.694 160.509 132.738 145.309 139.325L153.262 157.676Z" fill="#3F2F17"/>
<path d="M294.436 183.583C289.253 185.492 286.599 191.24 288.507 196.423C290.416 201.605 296.164 204.26 301.347 202.351L294.436 183.583ZM379.89 207.643C384.931 209.9 390.847 207.644 393.104 202.603C395.361 197.562 393.104 191.647 388.064 189.39L379.89 207.643ZM301.347 202.351C314.917 197.355 326.972 195.433 339.178 196.258C351.469 197.088 364.474 200.741 379.89 207.643L388.064 189.39C371.258 181.865 355.889 177.341 340.526 176.303C325.079 175.26 310.203 177.778 294.436 183.583L301.347 202.351Z" fill="#3F2F17"/>
<path d="M214.159 314.631C208.698 315.456 204.94 320.552 205.766 326.013C206.591 331.474 211.687 335.232 217.148 334.406L214.159 314.631ZM294.36 348.918C298.805 352.196 305.066 351.251 308.344 346.806C311.622 342.361 310.677 336.101 306.232 332.822L294.36 348.918ZM217.148 334.406C251.365 329.235 274.446 334.23 294.36 348.918L306.232 332.822C280.939 314.168 252.08 308.9 214.159 314.631L217.148 334.406Z" fill="#3F2F17"/>
<ellipse cx="193.531" cy="214.387" rx="25.489" ry="31.7411" fill="#3F2F17"/>
<ellipse cx="329.152" cy="225.929" rx="25.489" ry="31.7411" fill="#3F2F17"/>
</g>
<defs>
<clipPath id="clip0">
<rect width="512" height="512" fill="white"/>
</clipPath>
</defs>
</svg>

<?xml version="1.0" encoding="utf-8"?>
<!-- Generator: Adobe Illustrator 23.0.4, SVG Export Plug-In . SVG Version: 6.00 Build 0)  -->
<svg version="1.1" id="Layer_1" xmlns="http://www.w3.org/2000/svg" xmlns:xlink="http://www.w3.org/1999/xlink" x="0px" y="0px"
	 viewBox="0 0 512 512" style="enable-background:new 0 0 512 512;" xml:space="preserve">
<style type="text/css">
	.st0{clip-path:url(#SVGID_2_);}
	.st1{fill:#2DACD3;stroke:#444444;stroke-width:17;}
	.st2{fill:#17A2CC;}
	.st3{fill:#444444;}
</style>
<g>
	<defs>
		<rect id="SVGID_1_" width="512" height="512"/>
	</defs>
	<clipPath id="SVGID_2_">
		<use xlink:href="#SVGID_1_"  style="overflow:visible;"/>
	</clipPath>
	<g class="st0">
		<path class="st1" d="M348.6,102.6c-24.1-15-46.8-20.9-69.5-35.9c-14.1-9.5-33.6-32.2-49.9-51.8C226,46.3,216.4,59,205.5,68
			c-23.2,18.2-37.7,23.6-57.7,34.5c-16.8,8.6-108.1,63.1-108.1,180.3s98.5,203.4,208,203.4s204.3-79.5,204.3-199.8
			C452.1,166.1,363.1,111.6,348.6,102.6z"/>
		<path class="st2" d="M283.7,76.9c-23.5-14.3-35.3-30.9-46.6-43.2c-1.9-2.1-3.8-4.5-3.8-4.5c0.6,4.1,33.4,52.6,88.7,83.3
			c53,29.4,112.8,104.5,83.5,212c-16.1,59-53,119-153.2,155.6c30.4-0.1,56-8.6,67.4-12.3c14.5-4.2,51.2-22.6,74.1-47.5
			c12.8-13.7,50-48.9,52.3-135.4c2.2-82-53.5-154.2-109.9-182.7C315.4,91.9,301,85.5,283.7,76.9z"/>
		<path class="st3" d="M211.7,378.6c-9.1,2-35.2,12.6-24.2-0.5c13.7-17.1,17.6-50.9-8.6-78.1c-10.6-9-26.7-6.5-26.2,7.6
			c7.1,27.2,5.5,48.4-8.6,57.4C85.6,402.2,97.4,505.5,182,512c28.2,0,40.3-3.7,66-12.6c14.6-5,16.6-19.6,5.5-27.2
			c17.1-9.1,19.1-24.2,3-33.2c16-13.6,17.8-22.2,0-35.8l67-16.1c22.7-6,13.1-36.8-5-32.2L211.7,378.6z"/>
		<path class="st3" d="M145.3,139.3c-5.1,2.2-7.4,8.1-5.2,13.2c2.2,5.1,8.1,7.4,13.2,5.2L145.3,139.3z M234.9,156.5
			c5.2,1.8,10.9-0.9,12.8-6.1c1.8-5.2-0.9-10.9-6.1-12.8L234.9,156.5z M153.3,157.7c13.7-5.9,25.5-9.1,37.9-9.5
			c12.5-0.4,26.2,2.1,43.7,8.3l6.7-18.8c-19.1-6.8-35.4-9.9-51-9.4c-15.7,0.5-30.1,4.5-45.3,11.1L153.3,157.7z"/>
		<path class="st3" d="M294.4,183.6c-5.2,1.9-7.8,7.7-5.9,12.8c1.9,5.2,7.7,7.8,12.8,5.9L294.4,183.6z M379.9,207.6
			c5,2.3,11,0,13.2-5c2.3-5,0-11-5-13.2L379.9,207.6z M301.3,202.4c13.6-5,25.6-6.9,37.8-6.1c12.3,0.8,25.3,4.5,40.7,11.4l8.2-18.3
			c-16.8-7.5-32.2-12-47.5-13.1c-15.4-1-30.3,1.5-46.1,7.3L301.3,202.4z"/>
		<path class="st3" d="M214.2,314.6c-5.5,0.8-9.2,5.9-8.4,11.4c0.8,5.5,5.9,9.2,11.4,8.4L214.2,314.6z M294.4,348.9
			c4.4,3.3,10.7,2.3,14-2.1c3.3-4.4,2.3-10.7-2.1-14L294.4,348.9z M217.1,334.4c34.2-5.2,57.3-0.2,77.2,14.5l11.9-16.1
			c-25.3-18.7-54.2-23.9-92.1-18.2L217.1,334.4z"/>
		<ellipse class="st3" cx="193.5" cy="214.4" rx="25.5" ry="31.7"/>
		<ellipse class="st3" cx="329.2" cy="225.9" rx="25.5" ry="31.7"/>
	</g>
</g>
</svg>
